X:1
T:Ein Stündlein wohl vor Tag
T:Josef Rheinberger
T:Text: Eduard Mörike
T:Ein Stündlein wohl vor Tag
T:Nr. 2 aus Fünf Lieder, Op. 31
T:CPDL - Creative Commons Attribution Non Commercial 3.0
T:CPDL - Creative Commons Attribution Non Commercial 3.0
C:Josef Rheinberger
Z:Eduard Mörike
Z:CPDL - Creative Commons Attribution Non Commercial 3.0
%%score [ 1 2 3 4 ]
L:1/8
Q:1/4=63
M:3/4
K:Ab
V:1 treble nm="Sopran"
V:2 treble nm="Alt"
V:3 treble-8 nm="Tenor"
V:4 bass nm="Bass"
V:1
"^Mäßig bewegt"!p! E2 | FE A3 B | G3 z!<(! B2 | d3!<)!!>(! c BA!>)! | G3 z!f! =e2 | =e>=d dc de | %6
w: 1.~Der-|weil ich schla- fend|lag, ein|Stünd- lein wohl vor|Tag, sang|vor dem Fens- ter auf dem|
 (=d2 c2)!p!!<(! c2 | c>!<)!!pp!B B=A Bc | (B2 _A2) A2 |!<(! BA!<)! d3 e |!>(! c4!>)!!pp! E2 | %11
w: Baum _ ein|Schwälb- lein mir, ich hört' es|kaum, _ ein|Stünd- lein wohl vor|Tag, ein|
 EE E2 E2 | !fermata!E4 |] %13
w: Stünd- lein wohl vor|Tag.|
V:2
!p! E2 | FE A3 B | G3 z!<(! E2 | D3!<)!!>(! D D=D!>)! | =E3 z!f! G2 | G>G GG GG | G4!p!!<(! =E2 | %7
w: 2.~Hör'|an, was ich dir|sag', dein|Schätz- lein ich ver-|klag': der-|weil ich die- ses sin- gen|tu', herzt|
 _E>!<)!!pp!E EE EE | E4 C2 |!<(! DD!<)! D3 C |!>(! E4!>)!!pp! C2 | !^!C!^!B, !^!D3 E | %12
w: er ein Lieb in gu- ter|Ruh, ein|Stünd- lein wohl vor|Tag, ein|Stünd- lein wohl vor|
 !fermata!C4 |] %13
w: Tag.|
V:3
!p! E2 | FE A3 B | G3 z!<(! G2 | A3!<)!!>(! A B=B!>)! | c3 z!f! c2 | f>f f=e fg | %6
w: 3.~O|weh!~ nicht wei- ter|sag'! O|still, nichts hö- ren|mag! Flieg'|ab, flieg' ab von mei- nem|
 (f2 =e2)!p!!<(! c2 | _d>!<)!!pp!d dd dd | c4 A2 |!<(! AA!<)! A2 A2 |!>(! A4!>)!!pp! A2 | %11
w: Baum! _ Ach,|Lieb' und Treu ist wie ein|Traum, ein|Stünd- lein wohl vor|Tag, ein|
 GG F2 G2 | !fermata!A4 |] %13
w: Stünd- lein wohl vor|Tag.|
V:4
!p! E,2 | F,E, A,3 B, | G,3 z!<(! E,2 | F,3!<)!!>(! F, F,F,!>)! | C,3 z!f! C2 | G,>G, G,G, G,G, | %6
 G,4!p!!<(! G,2 | G,>!<)!!pp!G, G,G, G,G, | _G,4 G,2 |!<(! F,F,!<)! F,2 F,2 | %10
!>(! (E,2 =D,2)!>)!!pp! E,2 | E,E, E,2 E,2 | !fermata!A,,4 |] %13

